X:1
T:O Welt, Sieh Hier Dein Leben, 776.778
T:O Welt, Sieh Hier Dein Leben, 776.778
T:C. Luise Reichardt (1779-1826)
T:Public Domain Courtesy of the Cyber Hymnal™
C:C. Luise Reichardt (1779-1826)
Z:Public Domain
Z:Courtesy of the Cyber Hymnal™
%%score ( 1 2 ) ( 3 4 )
L:1/8
Q:1/4=110
M:4/4
K:C
V:1 treble 
V:2 treble 
V:3 bass 
V:4 bass 
V:1
 [DA]4 [DF]2 D2 | [EG]2 [DF]2 F4 | [^CE]4 z2 [CE]2 | [DF]2 [DF]2 [EG]2 [EA]2 | A4 [=CA]4 | %5
 z2 [EA]2 [EB]2 [Ec]2 | [FB]2 [EB]2 [^CA]4 | [FA]4 [EG]2 [DF]2 | [^CE]2 [DF]2 [DG]4 x | %9
 [CG]4 z2 [CE]2 | [CF]2 [DF]2 [EG]2 [DG]2 | A4 [=CA]4 | z2 [DA]2 [F_B]2 [FA]2 | %13
 [DG]2 [DF]2 [CE]2 [^CE]2 | D8 |] %15
V:2
 x6 D2 | x4 (D2 ^CB,) | x8 | x8 | (E2 ^CB,) x4 | x8 | x8 | x8 | x9 | x8 | x8 | (D2 ^CB,) x4 | x8 | %13
 x8 | D8 |] %15
V:3
 [D,F,]4 [D,A,]2 [_B,,G,]2 | [G,,_B,]2 [D,A,]2 [A,,A,]4 | [A,,A,]4 z2 [A,,A,]2 | %3
 [D,A,]2 [D,A,]2 [C,C]2 [_B,,G,]2 | (F,2 E,D,) [A,,E,]4 | z2 [A,C]2 [^G,B,]2 A,2 | %6
 [D,A,]2 [E,^G,]2 [A,,A,]4 | [F,C]4 [C,C]2 [D,A,]2 | [A,,A,]2 A,2 G,3 (z F,) | [C,E,]4 z2 [C,G,]2 | %10
 [A,,A,]2 [D,A,]2 [C,C]2 [_B,,G,]2 | (F,2 E,D,) [A,,E,]4 | z2 [D,F,]2 [_B,,D]2 [F,,C]2 | %13
 [G,,_B,]2 [D,A,]2 [A,,A,]2 [A,,E,]2 | [D,^F,]8 |] %15
V:4
 x8 | x8 | x8 | x8 | A,,4 x4 | x6 A,2 | x8 | x8 | x2 (D,C,) B,,2 G,,2 x | x8 | x8 | A,,4 x4 | x8 | %13
 x8 | x8 |] %15

